X:1
T:Konya, 98.98 D
T:Konya, 98.98 D
T:S. D. Goodale, probably before 1920
T:Public Domain Courtesy of the Cyber Hymnal™
C:S. D. Goodale, probably before 1920
Z:Public Domain
Z:Courtesy of the Cyber Hymnal™
%%score ( 1 2 ) ( 3 4 )
L:1/8
Q:1/4=92
M:6/8
K:Eb
V:1 treble 
V:2 treble 
V:3 bass 
V:4 bass 
V:1
 B, | G>GG FG>F | E3 B,2 E | G>GG GAG | F3- F2 B, | G>GG FG>F | E3 B,2 E | G>GG AGF | E3- E2 E | %9
 [Ec]>[Ec][Ec] [Ec][Ee][Ec] | [EB] [EG]4 [EG]/[EG]/ | [DF]>[DF][DF] [DF]E[DF] | [EG]3- [EG]2 E | %13
 [Ec]>[Ec][Ec] [Ec][Ee][Ec] | [EB] [EG]4 [EG] | [EB]>[EA][EG] [DF][DG]>[DF] | E3- E2 |] %17
V:2
 x | x6 | x6 | x6 | x6 | x6 | x6 | x6 | x5 E | x6 | x6 | x4 E x | x5 E | x6 | x6 | x6 | E3- E2 |] %17
V:3
 G, | B,>B,B, A,B,>A, | G,3 [E,G,]2 G, | B,>B,B, B,CB, | A,3- A,2 G, | B,>B,B, A,B,>A, | %6
 G,3 [E,G,]2 G, | B,>B,B, [A,,C]B,A, | G,3- [E,G,]2 [E,G,] | %9
 [A,,A,]>[A,,A,][A,,A,] [A,,A,][C,A,][A,,A,] | [E,G,] [E,B,]4 [E,B,]/[E,B,]/ | %11
 [B,,B,]>[B,,B,][B,,B,] [A,B,][G,B,][F,B,] | [E,B,]3- [E,B,]2 [E,G,] | %13
 [A,,A,]>[A,,A,][A,,A,] [A,,A,][C,A,][A,,A,] | [E,G,] [E,B,]4 [E,B,] | %15
 [G,,B,]>[A,,C][B,,B,] [B,,A,][B,,B,]>[B,,A,] | [E,G,]3- [E,G,]2 |] %17
V:4
 x | E,,3 B,,3 | (E,,G,,B,,) x3 | E,,3 E,3 | B,,D,F, x3 | E,,3 B,,3 | (E,,G,,B,,) x3 | %7
 E,,3 B,,2 x | E,,G,,B,, x3 | x6 | x6 | x6 | x6 | x6 | x6 | x6 | x5 |] %17

